logo/puppet-icon.svg

<?xml version="1.0" encoding="UTF-8"?>
<svg width="256px" height="395px" viewBox="0 0 256 395" version="1.1" xmlns="http://www.w3.org/2000/svg" xmlns:xlink="http://www.w3.org/1999/xlink" preserveAspectRatio="xMidYMid">
    <g>
        <path d="M256,256 L256,138.203835 L165.844601,138.203835 L117.796165,89.8970737 L117.796165,0 L0,0 L0,117.796165 L90.1553986,117.796165 L138.462159,166.102926 L138.462159,228.359233 L90.1553986,276.665994 L0,276.665994 L0,394.462159 L117.796165,394.462159 L117.796165,304.565086 L166.102926,256.258325 L256,256.258325 L256,256 L256,256 Z M39.2653885,39.2653885 L78.530777,39.2653885 L78.530777,78.530777 L39.2653885,78.530777 L39.2653885,39.2653885 Z M78.530777,354.938446 L39.2653885,354.938446 L39.2653885,315.673058 L78.530777,315.673058 L78.530777,354.938446 Z" fill="#FFAE1A"></path>
    </g>
</svg>

<svg viewBox="0 0 256 395" xmlns="http://www.w3.org/2000/svg"><path fill="#FFAE1A" d="M256 256V138.2h-90.16l-48.05-48.31V-.01H-.01v117.79h90.15l48.3 48.3v62.25l-48.31 48.3H-.03v117.79h117.79v-89.9l48.3-48.31h89.89v-.26 0ZM39.26 39.26h39.26v39.26H39.25V39.25Zm39.26 315.67H39.25v-39.27h39.26v39.26Z"/></svg>
